X:41
T:Murphy's
Z: id:dc-hornpipe-37
M:C|
L:1/8
K:D Major
(3ABc|d2AF d2AF|dcdf ecAg|fgaf gfed|c2A2 A2 (3ABc|!
d2AF d2AF|dcdf ecAg|fgaf bgec|d2dc d2:|!
fg|afdg faa2|bged ceag|fgaf gfed|c2A2 A2|!
[1 fg|afdg faa2|bged ceag|fgaf bgec|d2dc d2:|!
[2 (3ABc|d2AF d2AF|dcdf ecAg|fgaf bgec|d2dc d2|]!
AG|FADg fdec|dcdf ecAG|FADg fdec|dfec dBAG|!
FADg fdec|dcdf ecAg|fgaf bgec|d2dc d2:|!
g2|f2fd g2ge|f2fd ecAg|f2fd gfed|c2A2 A2|!
[1 AG|FDAD BDAc|dcdf ecAg|fgaf bgec|d2dc d2:|!
[2 (3ABc|d2df e2eg|f2fa g2ge|fgaf bgec|d2dc d2|]!

